app/screens/openweather/static/images/wi-day-lightning.svg

<?xml version="1.0" encoding="utf-8"?>
<!-- Generator: Adobe Illustrator 22.0.1, SVG Export Plug-In . SVG Version: 6.00 Build 0)  -->
<svg version="1.1" id="Layer_1" xmlns="http://www.w3.org/2000/svg" xmlns:xlink="http://www.w3.org/1999/xlink" x="0px" y="0px"
	 viewBox="0 0 30 30" style="enable-background:new 0 0 30 30;" xml:space="preserve">
<path d="M1.56,16.9c0,1.33,0.46,2.47,1.39,3.43c0.93,0.96,2.06,1.47,3.4,1.53c0.11,0,0.17-0.06,0.17-0.17v-1.37
	c0-0.12-0.06-0.18-0.17-0.18c-0.87-0.07-1.6-0.41-2.19-1.04c-0.59-0.62-0.89-1.36-0.89-2.21c0-0.84,0.28-1.57,0.85-2.19
	s1.26-0.97,2.1-1.04l0.52-0.08c0.13,0,0.2-0.06,0.2-0.17l0.06-0.51c0.11-1.08,0.56-1.99,1.37-2.71c0.81-0.73,1.76-1.09,2.86-1.09
	c1.09,0,2.04,0.36,2.85,1.09c0.81,0.72,1.27,1.63,1.39,2.72l0.07,0.58c0,0.11,0.06,0.17,0.19,0.17h1.6c0.91,0,1.68,0.32,2.32,0.95
	c0.64,0.63,0.96,1.39,0.96,2.28c0,0.85-0.3,1.59-0.89,2.21c-0.59,0.62-1.32,0.97-2.19,1.04c-0.13,0-0.2,0.06-0.2,0.18v1.37
	c0,0.11,0.07,0.17,0.2,0.17c1.33-0.04,2.46-0.55,3.38-1.51s1.38-2.11,1.38-3.45c0-0.68-0.16-1.37-0.47-2.07
	C22.6,13.89,23,12.8,23,11.56c0-0.71-0.14-1.39-0.42-2.04c-0.28-0.65-0.65-1.2-1.12-1.67s-1.03-0.84-1.67-1.12
	c-0.65-0.27-1.32-0.41-2.03-0.41c-1.54,0-2.84,0.58-3.88,1.73c-0.86-0.41-1.74-0.62-2.65-0.62c-1.42,0-2.67,0.43-3.76,1.3
	s-1.79,1.99-2.1,3.37c-1.1,0.26-2.01,0.83-2.73,1.73S1.56,15.75,1.56,16.9z M9.06,28.17h0.3l5.32-7.85
	c0.04-0.04,0.05-0.09,0.02-0.14s-0.07-0.07-0.14-0.07h-2.18l2.3-4.21c0.07-0.14,0.03-0.22-0.14-0.22h-2.94
	c-0.08,0-0.15,0.05-0.22,0.14l-2.16,5.72c-0.02,0.14,0.02,0.21,0.14,0.21h2.17L9.06,28.17z M9.94,4.59c0,0.25,0.08,0.46,0.24,0.62
	l0.66,0.65c0.42,0.32,0.82,0.32,1.21,0c0.16-0.18,0.24-0.39,0.24-0.64c0-0.23-0.08-0.43-0.24-0.59l-0.64-0.65
	c-0.19-0.17-0.39-0.25-0.62-0.25c-0.23,0-0.43,0.08-0.6,0.25C10.02,4.15,9.94,4.36,9.94,4.59z M15.28,9.02
	C15.96,8.34,16.79,8,17.76,8c0.98,0,1.81,0.35,2.49,1.04c0.69,0.69,1.03,1.53,1.03,2.52c0,0.61-0.17,1.21-0.51,1.81
	c-0.98-0.94-2.13-1.41-3.46-1.41h-0.31C16.74,10.82,16.16,9.84,15.28,9.02z M16.9,3.73c0,0.25,0.08,0.46,0.24,0.62
	c0.16,0.16,0.36,0.24,0.61,0.24c0.24,0,0.43-0.08,0.59-0.24c0.16-0.16,0.23-0.37,0.23-0.62V1.69c0-0.24-0.08-0.43-0.23-0.59
	c-0.16-0.16-0.35-0.23-0.59-0.23c-0.24,0-0.44,0.08-0.6,0.23S16.9,1.45,16.9,1.69V3.73z M22.42,6.05c0,0.23,0.09,0.43,0.27,0.6
	c0.18,0.17,0.37,0.25,0.55,0.25c0.16,0,0.37-0.08,0.62-0.25l1.44-1.43c0.17-0.18,0.25-0.39,0.25-0.63c0-0.24-0.08-0.45-0.25-0.61
	c-0.17-0.16-0.37-0.24-0.6-0.24c-0.22,0-0.41,0.08-0.58,0.25l-1.43,1.43C22.51,5.61,22.42,5.82,22.42,6.05z M23.23,17.87
	c0,0.23,0.08,0.43,0.24,0.61l0.65,0.66c0.16,0.16,0.36,0.24,0.58,0.24c0.24,0,0.44-0.08,0.6-0.25c0.17-0.17,0.25-0.38,0.25-0.63
	c0-0.23-0.08-0.42-0.25-0.57l-0.62-0.66c-0.19-0.16-0.39-0.23-0.62-0.23c-0.23,0-0.43,0.08-0.59,0.24
	C23.31,17.44,23.23,17.64,23.23,17.87z M24.68,11.56c0,0.22,0.09,0.41,0.26,0.57c0.17,0.17,0.37,0.25,0.6,0.25h2.04
	c0.24,0,0.44-0.08,0.61-0.24c0.17-0.16,0.25-0.35,0.25-0.59c0-0.24-0.09-0.44-0.26-0.61s-0.37-0.25-0.6-0.25h-2.04
	c-0.23,0-0.43,0.08-0.6,0.25C24.77,11.12,24.68,11.32,24.68,11.56z"/>
</svg>

<?xml version="1.0" encoding="UTF-8" standalone="no"?>
<!-- Generator: Adobe Illustrator 22.0.1, SVG Export Plug-In . SVG Version: 6.00 Build 0)  -->

<svg
   version="1.1"
   id="Layer_1"
   x="0px"
   y="0px"
   viewBox="0 0 30 30"
   style="enable-background:new 0 0 30 30;"
   xml:space="preserve"
   sodipodi:docname="wi-day-lightning.svg"
   inkscape:version="1.4.3 (0d15f75, 2025-12-25)"
   xmlns:inkscape="http://www.inkscape.org/namespaces/inkscape"
   xmlns:sodipodi="http://sodipodi.sourceforge.net/DTD/sodipodi-0.dtd"
   xmlns="http://www.w3.org/2000/svg"
   xmlns:svg="http://www.w3.org/2000/svg"><defs
   id="defs1" /><sodipodi:namedview
   id="namedview1"
   pagecolor="#ffffff"
   bordercolor="#000000"
   borderopacity="0.25"
   inkscape:showpageshadow="2"
   inkscape:pageopacity="0.0"
   inkscape:pagecheckerboard="0"
   inkscape:deskcolor="#d1d1d1"
   inkscape:zoom="21.260344"
   inkscape:cx="6.0676347"
   inkscape:cy="6.537994"
   inkscape:window-width="2560"
   inkscape:window-height="1387"
   inkscape:window-x="1352"
   inkscape:window-y="25"
   inkscape:window-maximized="0"
   inkscape:current-layer="Layer_1" />
<path
   d="m 9.06,28.17 h 0.3 l 5.32,-7.85 c 0.04,-0.04 0.05,-0.09 0.02,-0.14 -0.03,-0.05 -0.07,-0.07 -0.14,-0.07 h -2.18 l 2.3,-4.21 c 0.07,-0.14 0.03,-0.22 -0.14,-0.22 H 11.6 c -0.08,0 -0.15,0.05 -0.22,0.14 l -2.16,5.72 c -0.02,0.14 0.02,0.21 0.14,0.21 h 2.17 z"
   id="lightning"
   inkscape:label="lightning"
   style="display:inline" />
<path
   d="M 20.77,13.37 C 19.79,12.43 18.64,11.96 17.31,11.96 H 17 C 16.74,10.82 16.16,9.84 15.28,9.02 14.747852,8.5808351 14.551362,8.444555 13.88,8.05 13.02,7.64 12.14,7.43 11.23,7.43 9.81,7.43 8.56,7.86 7.47,8.73 6.38,9.6 5.68,10.72 5.37,12.1 c -1.1,0.26 -2.01,0.83 -2.73,1.73 -0.72,0.9 -1.08,1.92 -1.08,3.07 0,1.33 0.46,2.47 1.39,3.43 0.93,0.96 2.06,1.47 3.4,1.53 0.11,0 0.17,-0.06 0.17,-0.17 V 20.32 C 6.52,20.2 6.46,20.14 6.35,20.14 5.48,20.07 4.75,19.73 4.16,19.1 3.57,18.48 3.27,17.74 3.27,16.89 c 0,-0.84 0.28,-1.57 0.85,-2.19 0.57,-0.62 1.26,-0.97 2.1,-1.04 l 0.52,-0.08 c 0.13,0 0.2,-0.06 0.2,-0.17 L 7,12.9 C 7.11,11.82 7.56,10.91 8.37,10.19 9.18,9.46 10.13,9.1 11.23,9.1 c 1.09,0 2.04,0.36 2.85,1.09 0.81,0.72 1.27,1.63 1.39,2.72 l 0.07,0.58 c 0,0.11 0.06,0.17 0.19,0.17 h 1.6 c 0.91,0 1.68,0.32 2.32,0.95 0.64,0.63 0.96,1.39 0.96,2.28 0,0.85 -0.3,1.59 -0.89,2.21 -0.59,0.62 -1.32,0.97 -2.19,1.04 -0.13,0 -0.2,0.06 -0.2,0.18 v 1.37 c 0,0.11 0.07,0.17 0.2,0.17 1.33,-0.04 2.46,-0.55 3.38,-1.51 0.92,-0.96 1.38,-2.11 1.38,-3.45 0,-0.68 -0.16,-1.37 -0.47,-2.07 -0.446188,-0.841655 -0.583592,-0.981648 -1.05,-1.46 z"
   id="cloud"
   inkscape:label="cloud"
   style="display:inline"
   sodipodi:nodetypes="cscccsscssscssccsscccccscccssssscsscsscc" /><path
   id="sun"
   style="display:inline"
   inkscape:label="sun"
   d="M 21.82,14.83 C 22.6,13.89 23,12.8 23,11.56 23,10.85 22.86,10.17 22.58,9.52 22.3,8.87 21.93,8.32 21.46,7.85 20.99,7.38 20.43,7.01 19.79,6.73 19.14,6.46 18.47,6.32 17.76,6.32 c -1.54,0 -2.84,0.58 -3.88,1.73 l 1.4,0.97 C 15.96,8.34 16.79,8 17.76,8 c 0.98,0 1.81,0.35 2.49,1.04 0.69,0.69 1.03,1.53 1.03,2.52 0,0.61 -0.17,1.21 -0.51,1.81 M 9.94,4.59 c 0,0.25 0.08,0.46 0.24,0.62 l 0.66,0.65 c 0.42,0.32 0.82,0.32 1.21,0 0.16,-0.18 0.24,-0.39 0.24,-0.64 0,-0.23 -0.08,-0.43 -0.24,-0.59 L 11.41,3.98 C 11.22,3.81 11.02,3.73 10.79,3.73 10.56,3.73 10.36,3.81 10.19,3.98 10.02,4.15 9.94,4.36 9.94,4.59 Z M 16.9,3.73 c 0,0.25 0.08,0.46 0.24,0.62 0.16,0.16 0.36,0.24 0.61,0.24 0.24,0 0.43,-0.08 0.59,-0.24 0.16,-0.16 0.23,-0.37 0.23,-0.62 V 1.69 C 18.57,1.45 18.49,1.26 18.34,1.1 18.18,0.94 17.99,0.87 17.75,0.87 17.51,0.87 17.31,0.95 17.15,1.1 16.99,1.25 16.9,1.45 16.9,1.69 Z m 5.52,2.32 c 0,0.23 0.09,0.43 0.27,0.6 0.18,0.17 0.37,0.25 0.55,0.25 0.16,0 0.37,-0.08 0.62,-0.25 L 25.3,5.22 C 25.47,5.04 25.55,4.83 25.55,4.59 25.55,4.35 25.47,4.14 25.3,3.98 25.13,3.82 24.93,3.74 24.7,3.74 c -0.22,0 -0.41,0.08 -0.58,0.25 l -1.43,1.43 c -0.18,0.19 -0.27,0.4 -0.27,0.63 z m 0.81,11.82 c 0,0.23 0.08,0.43 0.24,0.61 l 0.65,0.66 c 0.16,0.16 0.36,0.24 0.58,0.24 0.24,0 0.44,-0.08 0.6,-0.25 0.17,-0.17 0.25,-0.38 0.25,-0.63 0,-0.23 -0.08,-0.42 -0.25,-0.57 l -0.62,-0.66 c -0.19,-0.16 -0.39,-0.23 -0.62,-0.23 -0.23,0 -0.43,0.08 -0.59,0.24 -0.16,0.16 -0.24,0.36 -0.24,0.59 z m 1.45,-6.31 c 0,0.22 0.09,0.41 0.26,0.57 0.17,0.17 0.37,0.25 0.6,0.25 h 2.04 c 0.24,0 0.44,-0.08 0.61,-0.24 0.17,-0.16 0.25,-0.35 0.25,-0.59 0,-0.24 -0.09,-0.44 -0.26,-0.61 -0.17,-0.17 -0.37,-0.25 -0.6,-0.25 h -2.04 c -0.23,0 -0.43,0.08 -0.6,0.25 -0.17,0.18 -0.26,0.38 -0.26,0.62 z" /></svg>
